X:1
T:The Ways of Man
M:4/4
L:1/8
K:G
 E| D3 E G3 G| A A3 B- d2 d| e2 e2 dd ee| B2 A G- G2| ee| e2 f g- g2 e2|\
 d3 c B2 GA| B3 B A2 G2| E2 G4 z2| D3 E G4| A3 A B- d3| e3 e d2 e2|\
 B A2 G- G3 e| e2 f2 g2 e2| d2 c B- B2 GA| B3 BA G2 E-| E G3- G4-|\
 G4 z2 GG|
